dqoai/src/main/frontend/src/components/SvgIcon/svg/box-plot.svg

<svg xmlns="http://www.w3.org/2000/svg" xml:space="preserve" width="10px" height="10px" overflow="hidden"><defs><clipPath id="a"><path d="M1491 608h163v388h-163z"/></clipPath></defs><g clip-path="url(#a)" transform="translate(-1491 -608)"><path fill-rule="evenodd" d="M1647.27 996h-149.54v-13.483h68.04v-61.421h-68.04a6.73 6.73 0 0 1-6.73-6.741v-224.71a6.73 6.73 0 0 1 6.73-6.741h68.04v-61.421h-68.04V608h149.54v13.483h-68.04v61.421h68.04a6.73 6.73 0 0 1 6.73 6.741v224.71a6.73 6.73 0 0 1-6.73 6.741h-68.04v61.403h68.04Zm-142.81-88.386h136.08v-98.873h-136.08Zm0-112.355h136.08v-98.873h-136.08Z"/></g></svg>

<svg width="15" height="15" xmlns="http://www.w3.org/2000/svg" xmlns:xlink="http://www.w3.org/1999/xlink" xml:space="preserve" overflow="hidden"><defs><clipPath id="clip0"><rect x="1491" y="608" width="163" height="388"/></clipPath></defs><g clip-path="url(#clip0)" transform="translate(-1491 -608)"><path d="M1647.27 996 1497.73 996 1497.73 982.517 1565.77 982.517 1565.77 921.096 1497.73 921.096C1494.01 921.096 1491 918.082 1491 914.355L1491 689.645C1491 685.918 1494.01 682.904 1497.73 682.904L1565.77 682.904 1565.77 621.483 1497.73 621.483 1497.73 608 1647.27 608 1647.27 621.483 1579.23 621.483 1579.23 682.904 1647.27 682.904C1650.99 682.904 1654 685.918 1654 689.645L1654 914.355C1654 918.082 1650.99 921.096 1647.27 921.096L1579.23 921.096 1579.23 982.499 1647.27 982.499ZM1504.46 907.614 1640.54 907.614 1640.54 808.741 1504.46 808.741ZM1504.46 795.259 1640.54 795.259 1640.54 696.386 1504.46 696.386Z" fill-rule="evenodd"/></g></svg>
